assets/bold/text-bolder-bold.svg

<svg id="Flat" xmlns="http://www.w3.org/2000/svg" viewBox="0 0 256 256">
  <path d="M177.0752,114.45508A47.97683,47.97683,0,0,0,140.001,36l-76.00586-.00488h-.001a12.0006,12.0006,0,0,0-12,12v152a11.99987,11.99987,0,0,0,11.99951,12L152,212a51.99383,51.99383,0,0,0,25.0752-97.54492ZM75.99414,59.99609,140,60a24,24,0,0,1,0,48H75.99414ZM152.00049,188l-76.00635-.00391V132H152a28,28,0,0,1,.00049,56Z"/>
</svg>

<svg xmlns="http://www.w3.org/2000/svg" viewBox="0 0 256 256"><path d="M177.1,114.5A48,48,0,0,0,140,36H64A12,12,0,0,0,52,48V200a12,12,0,0,0,12,12h88a52,52,0,0,0,25.1-97.5ZM76,60h64a24,24,0,0,1,0,48H76Zm76,128H76V132h76a28,28,0,0,1,0,56Z"/></svg>
